src/assets/duotone/Scissor1.svg

<svg width="24" height="24" viewBox="0 0 24 24"  xmlns="http://www.w3.org/2000/svg">
<path opacity="0.4" d="M16.1898 2H7.81976C4.17976 2 2.00977 4.17 2.00977 7.81V16.18C2.00977 19.82 4.17976 21.99 7.81976 21.99H16.1898C19.8298 21.99 21.9998 19.82 21.9998 16.18V7.81C21.9998 4.17 19.8298 2 16.1898 2Z" />
<path d="M14.1702 11.9899L17.7702 9.29992C18.1002 9.04992 18.1702 8.57992 17.9202 8.24992C17.6702 7.91992 17.2002 7.84992 16.8702 8.09992L12.9202 11.0499L10.5202 9.24992C10.5302 9.15992 10.5502 9.06992 10.5502 8.96992C10.5502 7.69992 9.52018 6.66992 8.25018 6.66992C6.98018 6.66992 5.9502 7.69992 5.9502 8.96992C5.9502 10.2399 6.98018 11.2699 8.25018 11.2699C8.87018 11.2699 9.43016 11.0199 9.85016 10.6199L11.6802 11.9899L9.84021 13.3699C9.43021 12.9799 8.87019 12.7299 8.26019 12.7299C6.99019 12.7299 5.96021 13.7599 5.96021 15.0299C5.96021 16.2999 6.99019 17.3299 8.26019 17.3299C9.53019 17.3299 10.5602 16.2999 10.5602 15.0299C10.5602 14.9299 10.5402 14.8299 10.5302 14.7299L12.9402 12.9299L16.8902 15.8799C17.0202 15.9799 17.1802 16.0299 17.3402 16.0299C17.5702 16.0299 17.7902 15.9299 17.9402 15.7299C18.1902 15.3999 18.1202 14.9299 17.7902 14.6799L14.1702 11.9899Z" />
</svg>

<?xml version="1.0" encoding="UTF-8"?>
<svg width="24" height="24" viewBox="0 0 24 24" xmlns="http://www.w3.org/2000/svg">
 <path d="m16.19 2h-8.37c-3.64 0-5.81 2.17-5.81 5.81v8.37c0 3.64 2.17 5.81 5.81 5.81h8.37c3.64 0 5.81-2.17 5.81-5.81v-8.37c0-3.64-2.17-5.81-5.81-5.81z" opacity=".4"/>
 <path d="m14.17 11.99 3.6-2.69c0.33-0.25 0.4-0.72 0.15-1.05s-0.72-0.4-1.05-0.15l-3.95 2.95-2.4-1.8c0.01-0.09 0.03-0.18 0.03-0.28 0-1.27-1.03-2.3-2.3-2.3s-2.3 1.03-2.3 2.3c0 1.27 1.03 2.3 2.3 2.3 0.62 0 1.18-0.25 1.6-0.65l1.83 1.37-1.84 1.38c-0.41-0.39-0.97002-0.64-1.58-0.64-1.27 0-2.3 1.03-2.3 2.3s1.03 2.3 2.3 2.3 2.3-1.03 2.3-2.3c0-0.1-0.02-0.2-0.03-0.3l2.41-1.8 3.95 2.95c0.13 0.1 0.29 0.15 0.45 0.15 0.23 0 0.45-0.1 0.6-0.3 0.25-0.33 0.18-0.8-0.15-1.05l-3.62-2.69z"/>
</svg>
